docs/inc/icons/gift.svg

<svg height="16" viewBox="0 0 14 16" width="14" xmlns="http://www.w3.org/2000/svg"><path d="m13 4h-1.38c.19-.33.33-.67.36-.91.06-.67-.11-1.22-.52-1.61-.36-.38-.81-.48-1.36-.48h-.11c-.53.02-1.11.25-1.53.58s-.73.72-.97 1.2c-.23-.48-.55-.88-.97-1.2s-1-.58-1.53-.58h-.03c-.56 0-1.06.09-1.44.48-.41.39-.58.94-.52 1.61.03.23.17.58.36.91h-1.38c-.55 0-1 .45-1 1v3h1v5c0 .55.45 1 1 1h9c.55 0 1-.45 1-1v-5h1v-3c0-.55-.45-1-1-1zm-4.78-.88c.17-.36.42-.67.75-.92.3-.23.72-.39 1.05-.41h.09c.45 0 .66.11.8.25s.33.39.3.95c-.05.19-.25.61-.5 1h-2.9l.41-.88zm-4.13-1.08c.13-.13.31-.25.91-.25.31 0 .72.17 1.03.41.33.25.58.55.75.92l.42.88h-2.9c-.25-.39-.45-.81-.5-1-.03-.56.16-.81.3-.95zm2.91 10.95h-4v-4.99h4v5zm0-6h-5v-1.99h5v2zm5 6h-4v-4.99h4v5zm1-6h-5v-1.99h5v2z" fill-rule="evenodd"/></svg>

<svg xmlns="http://www.w3.org/2000/svg" width="14" height="16" viewBox="0 0 14 16"><path fill-rule="evenodd" d="M13 4h-1.38c.19-.33.33-.67.36-.91.06-.67-.11-1.22-.52-1.61C11.1 1.1 10.65 1 10.1 1h-.11c-.53.02-1.11.25-1.53.58-.42.33-.73.72-.97 1.2-.23-.48-.55-.88-.97-1.2-.42-.32-1-.58-1.53-.58h-.03c-.56 0-1.06.09-1.44.48-.41.39-.58.94-.52 1.61.03.23.17.58.36.91H1.98c-.55 0-1 .45-1 1v3h1v5c0 .55.45 1 1 1h9c.55 0 1-.45 1-1V8h1V5c0-.55-.45-1-1-1H13zm-4.78-.88c.17-.36.42-.67.75-.92.3-.23.72-.39 1.05-.41h.09c.45 0 .66.11.8.25s.33.39.3.95c-.05.19-.25.61-.5 1h-2.9l.41-.88v.01zM4.09 2.04c.13-.13.31-.25.91-.25.31 0 .72.17 1.03.41.33.25.58.55.75.92L7.2 4H4.3c-.25-.39-.45-.81-.5-1-.03-.56.16-.81.3-.95l-.01-.01zM7 12.99H3V8h4v5-.01zm0-6H2V5h5v2-.01zm5 6H8V8h4v5-.01zm1-6H8V5h5v2-.01z"/></svg>
